build/logo/ClickHouseSolid.svg

<svg xmlns="http://www.w3.org/2000/svg" fill="none" viewBox="0 0 24 24" focusable="false"><path d="M0 0H24V24H0z"/><path fill="#74767B" fill-rule="evenodd" d="M6.99902 4L17.001 4C18.6582 4 20.001 5.34314 20.001 7L20.001 17C20.001 18.6569 18.6582 20 17.001 20L6.99902 20C5.3418 20 3.99902 18.6569 3.99902 17L3.99902 7C3.99902 5.34314 5.3418 4 6.99902 4ZM15.7256 17.2699L15.7256 6.72958C15.7256 6.36559 15.4395 6.07959 15.0752 6.07959C14.7109 6.07959 14.4248 6.36559 14.4248 6.72958L14.4248 17.2699C14.4248 17.6339 14.7109 17.9199 15.0752 17.9199C15.4395 17.9199 15.7256 17.6339 15.7256 17.2699ZM12.8896 6.72983L12.8896 17.2702C12.8896 17.6342 12.6035 17.9202 12.2393 17.9202C11.875 17.9202 11.5889 17.6342 11.5889 17.2702L11.5889 6.72983C11.5889 6.36583 11.875 6.07983 12.2393 6.07983C12.6035 6.07983 12.8896 6.36583 12.8896 6.72983ZM6.09082 6.931L6.09082 13.1064C6.09082 13.4704 6.37695 13.7563 6.74121 13.7563C7.10547 13.7563 7.3916 13.4704 7.3916 13.1064L7.3916 6.931C7.3916 6.567 7.10547 6.28101 6.74121 6.28101C6.37695 6.28101 6.09082 6.567 6.09082 6.931ZM10.0537 6.93102L10.0537 17.2702C10.0537 17.6342 9.76758 17.9202 9.40332 17.9202C9.03906 17.9202 8.75293 17.6342 8.75293 17.2702L8.75293 6.93102C8.75293 6.56702 9.03906 6.28101 9.40332 6.28101C9.76758 6.28101 10.0537 6.56702 10.0537 6.93102ZM18.3877 13.7073L18.3877 10.2507C18.3877 9.88673 18.1016 9.60083 17.7373 9.60083C17.373 9.60083 17.0869 9.88673 17.0869 10.2507L17.0869 13.7073C17.0869 14.0713 17.373 14.3574 17.7373 14.3574C18.1016 14.3574 18.3877 14.0713 18.3877 13.7073ZM7.3916 15.5608L7.3916 17.2701C7.3916 17.6341 7.10547 17.9201 6.74121 17.9201C6.37695 17.9201 6.09082 17.6341 6.09082 17.2701L6.09082 15.5608C6.09082 15.1968 6.37695 14.9109 6.74121 14.9109C7.10547 14.9109 7.3916 15.1968 7.3916 15.5608Z"/><path fill="#74767B" fill-rule="evenodd" d="M6.99902 4L17.001 4C18.6582 4 20.001 5.34314 20.001 7L20.001 17C20.001 18.6569 18.6582 20 17.001 20L6.99902 20C5.3418 20 3.99902 18.6569 3.99902 17L3.99902 7C3.99902 5.34314 5.3418 4 6.99902 4ZM17.0256 8.43363L17.0256 6.72958C17.0256 6.58404 17.0102 6.44191 16.9795 6.30319C16.9547 6.19132 16.9199 6.08167 16.8751 5.97424C16.8253 5.85473 16.7649 5.74232 16.694 5.63701C16.6247 5.53409 16.5454 5.43795 16.456 5.34859C16.4394 5.33204 16.4226 5.31585 16.4056 5.3L17.001 5.3C17.1389 5.3 17.2731 5.31579 17.4034 5.34736C17.4915 5.36871 17.5779 5.39728 17.6625 5.43307C17.7531 5.47142 17.8392 5.51687 17.9208 5.56941C18.0219 5.63463 18.1161 5.71079 18.2032 5.79788C18.2902 5.88491 18.3663 5.97897 18.4315 6.08008C18.4841 6.16167 18.5296 6.24784 18.5679 6.3386C18.6038 6.4234 18.6324 6.50996 18.6538 6.59827C18.6852 6.72837 18.701 6.86228 18.701 7L18.701 8.55269C18.634 8.51496 18.5644 8.48108 18.4922 8.45103C18.3851 8.40642 18.2757 8.37175 18.1641 8.34701C18.0253 8.31622 17.883 8.30083 17.7373 8.30083C17.5916 8.30083 17.4493 8.31622 17.3105 8.34701C17.2139 8.36843 17.1189 8.39731 17.0256 8.43363ZM17.0256 15.5246L17.0256 17.2699C17.0256 17.4155 17.0102 17.5576 16.9795 17.6963C16.9547 17.8082 16.9199 17.9178 16.8751 18.0253C16.8253 18.1448 16.7649 18.2572 16.694 18.3625C16.6248 18.4654 16.5454 18.5615 16.456 18.6509C16.4393 18.6676 16.4223 18.684 16.4051 18.7L17.001 18.7C17.1389 18.7 17.2731 18.6842 17.4034 18.6526C17.4915 18.6313 17.5779 18.6027 17.6625 18.5669C17.7531 18.5286 17.8392 18.4831 17.9208 18.4306C18.0219 18.3654 18.1161 18.2892 18.2032 18.2021C18.2902 18.1151 18.3663 18.021 18.4315 17.9199C18.4841 17.8383 18.5296 17.7522 18.5679 17.6614C18.6038 17.5766 18.6324 17.49 18.6538 17.4017C18.6852 17.2716 18.701 17.1377 18.701 17L18.701 15.4055C18.6341 15.4432 18.5646 15.477 18.4925 15.5071C18.3852 15.5518 18.2756 15.5865 18.1639 15.6113C18.0251 15.642 17.8829 15.6574 17.7373 15.6574C17.5917 15.6574 17.4495 15.642 17.3107 15.6113C17.214 15.5899 17.119 15.561 17.0256 15.5246ZM13.7453 18.7C13.7281 18.684 13.7111 18.6676 13.6944 18.6509C13.6819 18.6384 13.6695 18.6257 13.6573 18.6129C13.6451 18.6258 13.6327 18.6385 13.62 18.6512C13.6034 18.6678 13.5865 18.6841 13.5694 18.7L13.7453 18.7ZM10.9091 18.7C10.892 18.6841 10.8751 18.6678 10.8585 18.6512C10.8459 18.6386 10.8335 18.6259 10.8213 18.613C10.8091 18.6259 10.7967 18.6386 10.7841 18.6512C10.7675 18.6678 10.7506 18.6841 10.7335 18.7L10.9091 18.7ZM8.07309 18.7L8.07218 18.6992L8.07127 18.7L8.07309 18.7ZM6.37291 13.645C6.20154 13.5291 6.09082 13.3329 6.09082 13.1064L6.09082 6.931C6.09082 6.567 6.37695 6.28101 6.74121 6.28101C7.10547 6.28101 7.3916 6.567 7.3916 6.931L7.3916 13.1064C7.3916 13.3329 7.28088 13.5291 7.10952 13.645C7.00539 13.7155 6.87888 13.7563 6.74121 13.7563C6.60354 13.7563 6.47703 13.7155 6.37291 13.645ZM7.10952 15.0222C7.00539 14.9517 6.87888 14.9109 6.74121 14.9109C6.60354 14.9109 6.47703 14.9517 6.37291 15.0222C6.20154 15.1382 6.09082 15.3344 6.09082 15.5608L6.09082 17.2701C6.09082 17.6341 6.37695 17.9201 6.74121 17.9201C7.10547 17.9201 7.3916 17.6341 7.3916 17.2701L7.3916 15.5608C7.3916 15.3344 7.28088 15.1382 7.10952 15.0222ZM8.07227 5.50201C8.14717 5.43217 8.22656 5.36902 8.31046 5.31255C8.31674 5.30833 8.32303 5.30415 8.32936 5.3L7.81518 5.3C7.8215 5.30414 7.8278 5.30833 7.83407 5.31255C7.91797 5.36901 7.99737 5.43217 8.07227 5.50201ZM10.4773 5.3C10.4836 5.30414 10.4899 5.30832 10.4962 5.31255C10.5771 5.36702 10.6539 5.42772 10.7264 5.49464C10.7677 5.44418 10.8117 5.39558 10.8585 5.34883C10.8751 5.33221 10.892 5.31593 10.9091 5.3L10.4773 5.3ZM13.5694 5.3C13.5865 5.31593 13.6034 5.3322 13.62 5.34883C13.6326 5.36139 13.6449 5.37407 13.6571 5.38689C13.6694 5.37398 13.6818 5.36121 13.6944 5.34859C13.711 5.33204 13.7278 5.31585 13.7448 5.3L13.5694 5.3ZM15.7256 17.2699L15.7256 6.72958C15.7256 6.36559 15.4395 6.07959 15.0752 6.07959C14.7109 6.07959 14.4248 6.36559 14.4248 6.72958L14.4248 17.2699C14.4248 17.6339 14.7109 17.9199 15.0752 17.9199C15.4395 17.9199 15.7256 17.6339 15.7256 17.2699ZM12.8896 6.72983L12.8896 17.2702C12.8896 17.6342 12.6035 17.9202 12.2393 17.9202C11.875 17.9202 11.5889 17.6342 11.5889 17.2702L11.5889 6.72983C11.5889 6.36583 11.875 6.07983 12.2393 6.07983C12.6035 6.07983 12.8896 6.36583 12.8896 6.72983ZM10.0537 6.93102L10.0537 17.2702C10.0537 17.6342 9.76758 17.9202 9.40332 17.9202C9.03906 17.9202 8.75293 17.6342 8.75293 17.2702L8.75293 6.93102C8.75293 6.56702 9.03906 6.28101 9.40332 6.28101C9.76758 6.28101 10.0537 6.56702 10.0537 6.93102ZM18.3877 13.7073L18.3877 10.2507C18.3877 9.88673 18.1016 9.60083 17.7373 9.60083C17.373 9.60083 17.0869 9.88673 17.0869 10.2507L17.0869 13.7073C17.0869 14.0713 17.373 14.3574 17.7373 14.3574C18.1016 14.3574 18.3877 14.0713 18.3877 13.7073Z"/></svg>

<svg xmlns="http://www.w3.org/2000/svg" fill="none" viewBox="0 0 24 24" focusable="false"><g fill="#74767B" fill-rule="evenodd"><path d="M6.99 4H17c1.65 0 3 1.34 3 3v10c0 1.65-1.35 3-3 3H6.99c-1.65 0-3-1.35-3-3V7c0-1.66 1.35-3 3-3m8.73 13.26V6.72c0-.36-.29-.65-.65-.65s-.65.29-.65.65v10.54c0 .37.29.65.65.65s.65-.28.65-.65M12.88 6.72v10.55c0 .36-.28.65-.65.65-.36 0-.65-.29-.65-.65V6.72c0-.36.29-.65.65-.65.37 0 .65.29.65.65m-6.79.21v6.17c0 .37.28.65.65.65.36 0 .65-.28.65-.65V6.93c0-.37-.29-.65-.65-.65-.37 0-.65.28-.65.65m3.96 0v10.34c0 .36-.29.65-.65.65-.37 0-.65-.29-.65-.65V6.93c0-.37.28-.65.65-.65.36 0 .65.28.65.65m8.33 6.77v-3.45c0-.37-.28-.65-.65-.65-.36 0-.65.28-.65.65v3.45c0 .37.29.65.65.65.37 0 .65-.28.65-.65M7.39 15.56v1.71c0 .36-.29.65-.65.65-.37 0-.65-.29-.65-.65v-1.71c0-.37.28-.65.65-.65.36 0 .65.28.65.65"/><path d="M6.99 4H17c1.65 0 3 1.34 3 3v10c0 1.65-1.35 3-3 3H6.99c-1.65 0-3-1.35-3-3V7c0-1.66 1.35-3 3-3m10.03 4.43V6.72c0-.14-.01-.28-.05-.42-.02-.11-.06-.22-.1-.33-.05-.12-.11-.23-.18-.34-.07-.1-.15-.2-.24-.29-.02-.01-.03-.03-.05-.05h.6c.13 0 .27.02.4.05.09.02.17.05.26.09s.17.08.26.13c.1.07.19.15.28.23.09.09.16.18.23.29a2 2 0 0 1 .22.51c.03.13.05.27.05.41v1.55c-.07-.04-.14-.07-.21-.1-.11-.05-.22-.08-.33-.11-.14-.03-.28-.04-.43-.04-.14 0-.29.01-.42.04-.1.02-.2.05-.29.09m0 7.09v1.74c0 .15-.01.29-.05.43-.02.11-.06.22-.1.33-.05.12-.11.23-.18.34-.07.1-.15.2-.24.29-.02.01-.03.03-.05.05h.6c.13 0 .27-.02.4-.05.09-.02.17-.05.26-.09s.17-.08.26-.13c.1-.07.19-.15.28-.23.09-.09.16-.18.23-.29a2 2 0 0 0 .22-.51c.03-.13.05-.27.05-.4v-1.6c-.07.04-.14.07-.21.1-.11.05-.22.08-.33.11-.14.03-.28.04-.43.04-.14 0-.29-.01-.42-.04-.1-.03-.2-.05-.29-.09m-3.28 3.18c-.02-.02-.03-.04-.05-.05-.01-.02-.03-.03-.04-.04-.01.01-.02.02-.03.04-.02.01-.04.03-.06.05zm-2.84 0a.12.12 0 0 0-.05-.05c-.01-.02-.02-.03-.03-.04-.02.01-.03.02-.04.04-.02.01-.03.03-.05.05zm-2.83 0v-.01zm-1.7-5.06a.65.65 0 0 1-.28-.54V6.93c0-.37.28-.65.65-.65.36 0 .65.28.65.65v6.17c0 .23-.11.42-.29.54-.1.07-.23.11-.36.11-.14 0-.27-.04-.37-.11m.73 1.38a.64.64 0 0 0-.36-.11.636.636 0 0 0-.65.65v1.71c0 .36.28.65.65.65.36 0 .65-.29.65-.65v-1.71c0-.23-.11-.43-.29-.54m.97-9.52c.07-.07.15-.14.24-.19 0-.01.01-.01.01-.02h-.51l.02.02c.08.05.16.12.24.19m2.4-.21.02.02c.08.05.16.11.23.18.04-.05.09-.1.13-.15a.12.12 0 0 0 .05-.05zm3.09 0c.02.02.04.04.06.05.01.02.02.03.03.04.01-.01.03-.02.04-.04.02-.01.03-.03.05-.05zm2.16 11.97V6.72c0-.36-.29-.65-.65-.65s-.65.29-.65.65v10.54c0 .37.29.65.65.65s.65-.28.65-.65M12.88 6.72v10.55c0 .36-.28.65-.65.65-.36 0-.65-.29-.65-.65V6.72c0-.36.29-.65.65-.65.37 0 .65.29.65.65m-2.83.21v10.34c0 .36-.29.65-.65.65-.37 0-.65-.29-.65-.65V6.93c0-.37.28-.65.65-.65.36 0 .65.28.65.65m8.33 6.77v-3.45c0-.37-.28-.65-.65-.65-.36 0-.65.28-.65.65v3.45c0 .37.29.65.65.65.37 0 .65-.28.65-.65"/></g></svg>
